brandFactory_export/1.Light/Documento_Archivo PNG_1Light.svg

<?xml version="1.0" encoding="UTF-8"?>
<svg width="24px" height="24px" viewBox="0 0 24 24" version="1.1" xmlns="http://www.w3.org/2000/svg" xmlns:xlink="http://www.w3.org/1999/xlink">
    <title>1.Light/Documento_Archivo PNG_1Light</title>
    <g id="Symbols" stroke="none" stroke-width="1" fill="none" fill-rule="evenodd">
        <g id="1.Light/Documento_Archivo-PNG_1Light" fill="#5CB615" fill-rule="nonzero">
            <path d="M16.3092437,-2.66453526e-13 C16.5243697,-2.66453526e-13 16.7294118,0.0840336134 16.887395,0.231932773 L23.3781513,6.51428571 C23.4857143,6.62521008 23.5495798,6.76302521 23.5831933,6.90756303 C23.6067227,6.96806723 23.6235294,7.03193277 23.6235294,7.10252101 L23.6235294,22.1781513 C23.6235294,22.9613445 22.9478992,23.6235294 22.1478992,23.6235294 L7.22352941,23.6235294 C6.43697479,23.6235294 5.74789916,22.9478992 5.74789916,22.1781513 L5.79159664,18.5344538 L2.72268908,18.5344538 C1.22352941,18.5344538 0.00336134409,17.3142857 0.00336134409,15.8117647 L0.00336134409,10.7966387 C0.00336134409,9.29411765 1.22352941,8.07394958 2.72268908,8.07394958 L5.74789916,8.07394958 L5.74789916,1.44537815 C5.74789916,0.68907563 6.45042017,-2.66453526e-13 7.22352941,-2.66453526e-13 L16.3092437,-2.66453526e-13 Z M15.4789916,0.994957983 L7.22016807,0.994957983 C6.99831933,0.994957983 6.73277311,1.24033613 6.73277311,1.4487395 L6.73277311,8.07394958 L14.7798319,8.07394958 C16.2789916,8.07394958 17.4991597,9.29411765 17.4991597,10.7966387 L17.4991597,15.8117647 C17.4991597,17.3142857 16.2789916,18.5344538 14.7798319,18.5344538 L6.77983193,18.5344538 L6.73613445,22.1848739 C6.73613445,22.4033613 6.9815126,22.6319328 7.22352941,22.6319328 L22.1478992,22.6319328 C22.3966387,22.6319328 22.6319328,22.410084 22.6319328,22.1781513 L22.6319328,7.91932773 L19.5529412,7.91932773 C18.3764706,7.91932773 17.3613445,7.5394958 16.6218487,6.82016807 C15.8756303,6.09747899 15.4789916,5.1092437 15.4789916,3.95966387 L15.4789916,0.994957983 Z M14.7831933,9.06218487 L2.71932773,9.06218487 C1.76806723,9.06218487 0.991596638,9.83865546 0.991596638,10.7932773 L0.991596638,15.8084034 C0.991596638,16.7630252 1.76470588,17.5394958 2.71932773,17.5394958 L14.7831933,17.5394958 C15.7344538,17.5394958 16.5109244,16.7630252 16.5109244,15.8084034 L16.5109244,10.7932773 C16.5109244,9.83865546 15.7378151,9.06218487 14.7831933,9.06218487 Z M13.4621849,11.0823529 C13.8991597,11.0823529 14.4235294,11.1731092 14.7058824,11.2941176 L14.5781513,12.0302521 C14.2621849,11.9394958 13.8823529,11.8689076 13.5327731,11.8689076 C12.6420168,11.8689076 12.2756303,12.3966387 12.2756303,13.3579832 C12.2756303,13.8554622 12.3394958,14.2621849 12.5344538,14.5310924 C12.6957983,14.7563025 12.9613445,14.887395 13.3848739,14.887395 C13.5462185,14.887395 13.7647059,14.8672269 13.9193277,14.8436975 L13.9193277,13.9159664 L13.3008403,13.9159664 L13.3008403,13.1932773 L14.9210084,13.1932773 L14.9210084,15.4453782 C14.5008403,15.5731092 13.8319328,15.6705882 13.3478992,15.6705882 C11.7647059,15.6672269 11.2302521,14.7966387 11.2302521,13.3983193 C11.2302521,12.0168067 11.9596639,11.0823529 13.4621849,11.0823529 Z M4.26890756,11.1663866 C4.95798319,11.1663866 5.39831933,11.2638655 5.68067227,11.5260504 C5.91932773,11.7445378 6.03697479,12.087395 6.03697479,12.5579832 C6.03697479,13.0285714 5.92605042,13.3848739 5.70756302,13.6302521 C5.4487395,13.9193277 5.0487395,14.0571429 4.47058823,14.0571429 L3.76134454,14.0571429 L3.76134454,15.5798319 L2.75294118,15.5798319 L2.75294118,11.1663866 L4.26890756,11.1663866 Z M7.48907563,11.1663866 L9.57983193,13.989916 L9.57983193,11.1663866 L10.4638655,11.1663866 L10.4638655,15.5764706 L9.65714286,15.5764706 L7.6302521,12.9008403 L7.6302521,15.5764706 L6.74621849,15.5764706 L6.74621849,11.1663866 L7.48907563,11.1663866 Z M4.23193277,11.8957983 L3.76134454,11.8957983 L3.76134454,13.3008403 L4.25546218,13.3008403 C4.57815126,13.3008403 4.71260504,13.2571429 4.84369748,13.1327731 C4.96134454,13.0151261 5.01848739,12.8302521 5.01848739,12.5714286 C5.01848739,12.3327731 4.96806723,12.1579832 4.85042017,12.0504202 C4.72941176,11.9394958 4.54117647,11.8957983 4.23193277,11.8957983 Z M16.4705882,1.21008403 L16.4705882,3.95630252 C16.4705882,4.8302521 16.7596639,5.57310924 17.3109244,6.10420168 C17.8655462,6.63865546 18.6386555,6.92436975 19.5529412,6.92436975 L22.3731092,6.92436975 L16.4705882,1.21008403 Z" id="Documento_Archivo-PNG_1Light"></path>
        </g>
    </g>
</svg>

<svg width="24" height="24" viewBox="0 0 24 24" xmlns="http://www.w3.org/2000/svg"><path d="M16.31 0c.214 0 .42.084.577.232l6.491 6.282c.108.111.172.249.205.394.024.06.04.124.04.195v15.075c0 .783-.675 1.446-1.475 1.446H7.224c-.787 0-1.476-.676-1.476-1.446l.044-3.644h-3.07c-1.498 0-2.719-1.22-2.719-2.722v-5.015a2.723 2.723 0 012.72-2.723h3.025V1.445C5.748.69 6.45 0 7.224 0h9.085zm-.831.995H7.22c-.222 0-.487.245-.487.454v6.625h8.047c1.499 0 2.72 1.22 2.72 2.723v5.015a2.723 2.723 0 01-2.72 2.722h-8l-.044 3.65c0 .22.246.448.488.448h14.924c.249 0 .484-.222.484-.454V7.92h-3.08c-1.176 0-2.19-.38-2.93-1.099-.746-.723-1.143-1.71-1.143-2.86V.995zm-.696 8.067H2.72c-.95 0-1.727.777-1.727 1.731v5.015a1.73 1.73 0 001.727 1.731h12.064c.951 0 1.728-.776 1.728-1.73v-5.016a1.73 1.73 0 00-1.728-1.73zm-1.32 2.02c.436 0 .96.091 1.243.212l-.128.736a3.95 3.95 0 00-1.045-.161c-.891 0-1.257.528-1.257 1.489 0 .497.063.904.258 1.173.162.225.427.356.85.356.162 0 .38-.02.535-.043v-.928h-.618v-.723h1.62v2.252c-.42.128-1.09.226-1.573.226-1.583-.004-2.118-.874-2.118-2.273 0-1.381.73-2.316 2.232-2.316zm-9.194.084c.689 0 1.13.098 1.412.36.238.219.356.561.356 1.032 0 .47-.11.827-.33 1.072-.258.29-.658.427-1.236.427h-.71v1.523H2.753v-4.414h1.516zm3.22 0l2.09 2.824v-2.824h.885v4.41h-.807L7.63 12.901v2.675h-.884v-4.41h.743zm-3.257.73h-.47V13.3h.493c.323 0 .458-.044.589-.168.117-.118.174-.303.174-.562 0-.238-.05-.413-.168-.52-.12-.112-.309-.155-.618-.155zM16.47 1.21v2.746c0 .874.289 1.617.84 2.148.555.535 1.328.82 2.242.82h2.82L16.471 1.21z" fill="#5CB615" fill-rule="nonzero"/></svg>
